packages/elements/src/assets/ino-icon/image_not_available.svg

<?xml version="1.0" encoding="UTF-8"?>
<svg width="14px" height="15px" viewBox="0 0 14 15" version="1.1" xmlns="http://www.w3.org/2000/svg" xmlns:xlink="http://www.w3.org/1999/xlink">
    <title>icon/brokenimage/blue</title>
    <g id="elements-library" stroke="none" stroke-width="1" fill="none" fill-rule="evenodd">
        <g id="00.16-icons" transform="translate(-889.000000, -642.000000)" fill="#0D10F3" fill-rule="nonzero">
            <g id="Group-139" transform="translate(889.000000, 642.000000)">
                <path d="M8.484,2 L8.009,2.807 L0.823529412,2.80786751 L0.823529412,11.6923223 L2.778,11.692 L2.303,12.499 L0.823529412,12.5 C0.403693041,12.5 0.0572336666,12.1918829 0.00641646325,11.7936357 L0,11.6923223 L0,2.80786751 C0,2.36179943 0.368706677,2.0001898 0.823529412,2.0001898 L0.823529412,2.0001898 L8.484,2 Z M13.1764706,2.0001898 C13.6312933,2.0001898 14,2.36179943 14,2.80786751 L14,2.80786751 L14,11.6923223 C14,12.1383904 13.6312933,12.5 13.1764706,12.5 L13.1764706,12.5 L5.155,12.499 L5.63,11.692 L13.1764706,11.6923223 L13.1764706,2.80786751 L10.862,2.807 L11.337,2 Z" id="Combined-Shape"></path>
                <path d="M9.94971963,8.29084957 L12.2857011,10.2094179 C12.5822328,10.4232026 12.509977,10.7323298 12.4277297,10.8359134 C12.3454824,10.9394971 12.1350124,11.1260873 11.8121764,10.8736806 C11.5969525,10.7054094 10.9026575,10.1336858 9.72929147,9.15850986 L8.65604458,10.2094179 C8.43427332,10.3745638 8.23904215,10.28748 8.09384813,10.1780422 L7.273,9.483 L7.671,8.752 L8.38081308,9.35567388 L9.37028222,8.37135149 C9.62893598,8.11724899 9.81065903,8.17052041 9.94971963,8.29084957 Z M4.61257153,6.15174927 L5.812,7.172 L5.412,7.906 L4.344873,7.0013384 L2.20865497,9.40966465 C1.95005275,9.68338667 1.70375641,9.53254676 1.61488255,9.46603599 C1.46170582,9.27825281 1.46170582,9.07298885 1.61488255,8.8502441 L4.00386773,6.15174927 C4.22267675,5.94941691 4.29909662,5.94941691 4.61257153,6.15174927 Z" id="Combined-Shape"></path>
                <path d="M10.3594697,4.00026231 C10.7822306,4.34543967 11.0521503,4.87073866 11.0521503,5.45908079 C11.0521503,6.49867561 10.2093922,7.34143373 9.16979739,7.34143373 C8.93436752,7.34143373 8.70903252,7.29821242 8.50129432,7.21927173 L8.98527601,6.38217638 C9.04494424,6.39403723 9.10664443,6.40025726 9.16979739,6.40025726 C9.6895948,6.40025726 10.1109739,5.9788782 10.1109739,5.45908079 C10.1109739,5.22088049 10.0224848,5.00334791 9.87658635,4.83756255 Z" id="Combined-Shape"></path>
                <path d="M10.2193638,0.235449798 C10.2193638,0.19301712 10.4881459,-0.159411902 10.8474222,0.0864101216 C11.0698313,0.23858566 11.1145467,0.463864558 10.9815683,0.762246816 L2.88201275,14.7136702 C2.88201275,14.7136702 2.5991384,15.1618775 2.23440486,14.9367512 C1.99124916,14.7866671 1.93726838,14.5764309 2.07246252,14.3060426 L10.2193638,0.235449798 Z" id="Line-11"></path>
            </g>
        </g>
    </g>
</svg>

<svg width="14" height="15" xmlns="http://www.w3.org/2000/svg">
  <g fill="#0D10F3" fill-rule="nonzero">
    <path d="M8.484 2l-.475.807H.824v8.885h1.954l-.475.807-1.48.001a.818.818 0 01-.817-.706L0 11.692V2.808C0 2.362.369 2 .824 2h7.66zm4.692 0c.455 0 .824.362.824.808v8.884a.816.816 0 01-.824.808l-8.021-.001.475-.807h7.546V2.808l-2.314-.001.475-.807z"/>
    <path d="M9.95 8.29l2.336 1.92c.296.213.224.522.142.626-.083.103-.293.29-.616.038-.215-.169-.91-.74-2.083-1.715l-1.073 1.05c-.222.166-.417.078-.562-.031l-.821-.695.398-.731.71.604.99-.985c.258-.254.44-.2.579-.08zM4.613 6.153l1.199 1.02-.4.734-1.067-.905L2.209 9.41c-.259.273-.505.123-.594.056-.153-.188-.153-.393 0-.616l2.389-2.698c.219-.203.295-.203.609 0zM10.36 4A1.882 1.882 0 018.501 7.22l.483-.837a.941.941 0 00.891-1.545zM10.22.235c0-.042.268-.394.627-.149.223.153.268.378.135.676l-8.1 13.952s-.283.448-.648.223c-.243-.15-.297-.36-.162-.631L10.22.236z"/>
  </g>
</svg>
